X: 8499
T: Creator Of The Starry Night
R: barndance
M: 4/4
K: Dmajor
D2 D2 F2 A2|A2 B2 G2 A2|A2 B2 G2 A2|G2 F2 E2 HF2|
A2 G2 E2 F2|G2 F2 E2 HD2|D2 F2 G2 A2|G2 F2 E2 HF2|
D2 E2 F2 HF2||

